X: 100457
P: Violin Secundo
Q: "Andante"
M: 3/4
L: 1/8
K: G
|:\
vG,(GBG) | (cB) (AG) | D3 D | ([EC]F) ([FA,]G)  |\
(B,D) (GB) | [B2G2] [cG-][BG] | (Bc/B/) AG | (D>^C D/=C/B,/A,/) |
(B,D) (GB) | (BG) [c2G2] | D3 ^F | GDG,z :|
|: vD3 D | (GD) D2 | (GA/B/) (AG) | (DC) (B,G,) |\
(B,D) (GB) | (BG) (cG) | (Bc/B/) AG | (D>^C D/=C/B,/A,/) |
(B,D) (GB) | [B2G2] [c2G2] | d2 (D^F) | GDG,z :|


